icons/mobile/24/svg/add-to-homescreen-24.svg

<svg width="24" height="24" viewBox="0 0 24 24" fill="none" xmlns="http://www.w3.org/2000/svg">
<path fill-rule="evenodd" clip-rule="evenodd" d="M6.58887 2.39838C9.80387 1.87138 13.1412 1.86859 16.3682 2.38959C17.401 2.55761 18.232 3.21283 18.667 4.0937L17.25 5.51069V5.47846C17.2498 4.79967 16.7617 4.22706 16.0889 4.11909C13.0479 3.62611 9.90203 3.62897 6.87109 4.12495C6.23123 4.22993 5.7502 4.80969 5.75 5.47651V16.2499H17.25V13.5009H19V18.5244C18.9998 20.0641 17.9109 21.3585 16.4111 21.6015C14.7951 21.8655 13.143 21.9999 11.5 21.9999C9.875 21.9999 8.23583 21.8683 6.63184 21.6093C5.1059 21.3623 4.00003 20.0624 4 18.5195V5.47553C4.00019 3.93578 5.08911 2.64145 6.58887 2.39838ZM10.25 17.9999C9.836 17.9999 9.5 18.3359 9.5 18.7499C9.5 19.1639 9.836 19.4999 10.25 19.4999H12.75C13.164 19.4999 13.5 19.1639 13.5 18.7499C13.5 18.3359 13.164 17.9999 12.75 17.9999H10.25Z" fill="black"/>
<path d="M8.75 12.9999C9.02614 12.9999 9.25 13.2238 9.25 13.4999V14.4999C9.24997 14.7761 9.02612 14.9999 8.75 14.9999H7.75C7.47388 14.9999 7.25003 14.7761 7.25 14.4999V13.4999C7.25 13.2238 7.47386 12.9999 7.75 12.9999H8.75Z" fill="black"/>
<path d="M12 12.9999C12.2761 12.9999 12.5 13.2238 12.5 13.4999V14.4999C12.5 14.7761 12.2761 14.9999 12 14.9999H11C10.7239 14.9999 10.5 14.7761 10.5 14.4999V13.4999C10.5 13.2238 10.7239 12.9999 11 12.9999H12Z" fill="black"/>
<path d="M15.25 12.9999C15.5261 12.9999 15.75 13.2238 15.75 13.4999V14.4999C15.75 14.7761 15.5261 14.9999 15.25 14.9999H14.25C13.9739 14.9999 13.75 14.7761 13.75 14.4999V13.4999C13.75 13.2238 13.9739 12.9999 14.25 12.9999H15.25Z" fill="black"/>
<path d="M19.5059 5.25678C19.8479 4.9148 20.4021 4.91479 20.7441 5.25678C21.0861 5.59878 21.0861 6.15307 20.7441 6.49506L17.6426 9.59565L18.7666 10.7197C19.2395 11.1916 18.9051 11.9997 18.2373 11.9999H14.75C14.336 11.9999 14 11.6639 14 11.2499V7.76264C14.0002 7.09482 14.8083 6.76141 15.2803 7.23334L16.4043 8.35737L19.5059 5.25678Z" fill="black"/>
<path d="M12 9.74995C12.2761 9.74995 12.5 9.9738 12.5 10.2499V11.2499C12.5 11.5261 12.2761 11.7499 12 11.7499H11C10.7239 11.7499 10.5 11.5261 10.5 11.2499V10.2499C10.5 9.9738 10.7239 9.74995 11 9.74995H12Z" fill="black"/>
</svg>

<!-- This Source Code Form is subject to the terms of the Mozilla Public
   - License, v. 2.0. If a copy of the MPL was not distributed with this
   - file, You can obtain one at http://mozilla.org/MPL/2.0/. -->
<svg xmlns="http://www.w3.org/2000/svg" width="24" height="24" fill="none" viewBox="0 0 24 24">
    <path fill="#000" fill-rule="evenodd" d="M6.589 2.398a30.6 30.6 0 0 1 9.78-.008 3.11 3.11 0 0 1 2.298 1.704L17.25 5.51v-.033c0-.678-.488-1.25-1.161-1.359a28.8 28.8 0 0 0-9.218.006c-.64.105-1.12.685-1.121 1.352V16.25h11.5V13.5H19v5.024c0 1.54-1.09 2.834-2.589 3.078a30.6 30.6 0 0 1-9.78.007A3.12 3.12 0 0 1 4 18.52V5.477c0-1.54 1.09-2.835 2.589-3.078M10.25 18a.75.75 0 0 0 0 1.5h2.5a.75.75 0 0 0 0-1.5z" clip-rule="evenodd" />
    <path fill="#000" d="M8.75 13a.5.5 0 0 1 .5.5v1a.5.5 0 0 1-.5.5h-1a.5.5 0 0 1-.5-.5v-1a.5.5 0 0 1 .5-.5zM12 13a.5.5 0 0 1 .5.5v1a.5.5 0 0 1-.5.5h-1a.5.5 0 0 1-.5-.5v-1a.5.5 0 0 1 .5-.5zm3.25 0a.5.5 0 0 1 .5.5v1a.5.5 0 0 1-.5.5h-1a.5.5 0 0 1-.5-.5v-1a.5.5 0 0 1 .5-.5zm4.256-7.743a.875.875 0 1 1 1.238 1.238l-3.101 3.1 1.124 1.125a.75.75 0 0 1-.53 1.28H14.75a.75.75 0 0 1-.75-.75V7.763a.75.75 0 0 1 1.28-.53l1.124 1.124zM12 9.75a.5.5 0 0 1 .5.5v1a.5.5 0 0 1-.5.5h-1a.5.5 0 0 1-.5-.5v-1a.5.5 0 0 1 .5-.5z" />
</svg>
